X:1
T:Title
%%score { 1 | 2 }
L:1/8
M:4/4
K:Ab
V:1 treble nm="Grand Piano"
V:2 bass 
V:1
 z4 z2[Q:1/4=112] [CE]>[Ec] | [DB]2 [CA]2 [A,EG]2 [A,DF]2 | [A,CE]4 [CEA]2 [CEA]>[CEA] | %3
 G2 A2 B2 [=Dc]2 | B6 E>c | [DB]2 [CA]2 [CE]2 [EA]2 |[M:9/8] [DF]3- [DF] [Fd]2- [Fd][Fd]>[Fd] | %7
[M:4/4] c3 B A2 G2 |[M:3/4] [CA]6 |[M:1/4] [CE]>[CA] |[M:4/4] [DG]2 [DG]4 [DE]>[DB] | %11
 [CA]2 [CA]4 c>c | B2 [=DF]2 [DG]2 [DA]2 | B6 c>d | e2 c4 [EA]>[CE] | %15
[M:5/4] [DF]2 [Fd]6 [Fd]>[Fd] |[M:4/4] c3 B A2 G2 |[M:3/4] [CA]6 |] %18
V:2
 z4 z2 [A,,A,]>[A,,A,] | [A,,A,]2 [A,,A,]2 C,2 D,2 | A,,4 A,,2 A,,>A,, | %3
 [E,B,E]2 [E,F,E]2 [E,G,E]2 [B,,A,]2 | [E,G,E]6 [E,G,D]>[E,G,D] | %5
 [A,,A,]2 [A,,A,]2 [A,,A,]2 [C,A,]2 |[M:9/8] [D,A,]3- [D,A,] [D,A,]2- [D,A,][D,A,]>[D,A,] | %7
[M:4/4] [E,A,E]3 [E,DE] [E,CE]2 [E,B,D]2 |[M:3/4] [A,,A,]6 |[M:1/4] [A,,A,]>[A,,E,] | %10
[M:4/4] [B,,E,]2 [B,,E,]4 [E,G,]>[E,G,] | [A,,A,]2 [A,,A,]4 [A,E]>[A,E] | %12
 [F,A,=D]2 [B,,A,]2 [B,,G,]2 [B,,F,]2 | [E,G,E]6 [A,E]>[A,B,E] | [A,CE]2 [A,E]4 [C,A,]>[A,,A,] | %15
[M:5/4] [D,A,]2 [D,A,]6 [D,A,]>[D,A,] |[M:4/4] [E,A,E]3 [E,DE] [E,CE]2 [E,B,D]2 | %17
[M:3/4] [A,,A,]6 |] %18

